kora/status/symbolic/arch-lit-symbolic.svg

<svg xmlns="http://www.w3.org/2000/svg" style="clip-rule:evenodd;fill-rule:evenodd;stroke-linejoin:round;stroke-miterlimit:2" version="1.1" viewBox="0 0 16 16">
 <defs>
  <style id="current-color-scheme" type="text/css">
   .ColorScheme-Text { color:#dfdfdf; } .ColorScheme-Highlight { color:#4285f4; } .ColorScheme-NeutralText { color:#ff9800; } .ColorScheme-PositiveText { color:#4caf50; } .ColorScheme-NegativeText { color:#f44336; }
  </style>
 </defs>
 <path style="fill:currentColor;" class="ColorScheme-Text" d="m8 1c-1.825 1.725-4.702 3-5.643 3.25 0 6.596 2.191 9.206 5.643 10.75 3.571-1.286 5.643-4.134 5.643-10.75-0.941-0.25-3.818-1.525-5.643-3.25zm0 0.699c-1.698 1.359-3.825 2.411-5.13 2.921 0.155 5.829 2.071 8.397 5.172 9.916 3.177-1.31 4.947-4.079 5.089-9.915-1.305-0.51-3.433-1.562-5.131-2.922z"/>
 <path style="fill:currentColor;" class="ColorScheme-Text" d="m7 5h2v3h2l-3 4-3-4h2v-3z"/>
</svg>

<svg style="clip-rule:evenodd;fill-rule:evenodd;stroke-linejoin:round;stroke-miterlimit:2" viewBox="0 0 16 16" xmlns="http://www.w3.org/2000/svg">
 <path d="M8,1C6.175,2.725 3.298,4 2.357,4.25C2.357,10.846 4.548,13.456 8,15C11.571,13.714 13.643,10.866 13.643,4.25C12.702,4 9.825,2.725 8,1ZM8,1.699C6.302,3.058 4.175,4.11 2.87,4.62C3.025,10.449 4.941,13.017 8.042,14.536C11.219,13.226 12.989,10.457 13.131,4.621C11.826,4.111 9.698,3.059 8,1.699Z" style="fill:rgb(223,223,223)"/>
 <path d="m7 5h2v3h2l-3 4-3-4h2v-3z" style="fill:rgb(223,223,223)"/>
</svg>
